!!!COM: Mozart	
!!!OTL: Zehn Variationen in G, uber die Ariette 'Unser dummer Pobel meint' aus dem Singspiel 'Die Pilgrime von Mekka'
!!!Variation: Variation 10 a
!!!COM: Mozart
**function	**harm	**kern	**kern
*M3/8	*M3/8	*staff2	*staff1
*G:	*G:	*clefF4	*clefG2
*tb16	*	*k[f#]	*k[f#]
*	*	*met(c|)	*met(c|)
*	*	*M3/8	*M3/8
*	*	*G:	*G:
=-	=-	=-	=-
*	*	*	*^
4.T	4.I	8gL	8r	4.G
.	.	8g	(8BL	.
.	.	16bL	8dJ)	.
.	.	16gJJ	.	.
=	=	=209	=209	=209
4.T	4.V6	8f#L	8r	4.F#
.	.	8f#	(8AL	.
.	.	16aL	8dJ)	.
.	.	16f#JJ	.	.
=	=	=210	=210	=210
4T	4vi	8eL	8r	4.E
.	.	8e	(8GL	.
8T	8viio6/V	16gL	8c#J)	.
.	.	16eJJ	.	.
=	=	=211	=211	=211
4T	4V	4d	4.r	8DL
.	.	.	.	8F#
8T	8viio/ii	[8dd	.	8G#J
=	=	=212	=212	=212
4T	4V/V	(8ddL]	4.r	8AL
.	.	8cc#)	.	8E
8T	8viio	[8ccJ	.	8F#J
=	=	=213	=213	=213
*	*	*^	*	*
4T	4I	(8ccL]	8r	8r	4G
.	.	8b)	8r	8r	.
8P	8viio7/V	16aL	8e	8B-	8C#
.	.	16gJJ	.	.	.
=	=	=214	=214	=214	=214
4D	4I64	(4g	4d	4Bn	4.D
8D	8V7	16bLL	8f#	8cn	.
.	.	16aJJ)	.	.	.
*	*	*v	*v	*	*
=	=	=215	=215	=215
4.T	4.I	4g	8B	8GL
.	.	.	8r	8D
.	.	8r	8r	8GGJ
*	*	*	*clefF4	*clefF4
*	*	*	*v	*v
=	=	=216:|!	=216:|!
*-	*-	*-	*-
